X: 188
T:The Millennium Reel
M:4/4
L:1/8
C:Vincent Broderick
S:The Turoe Stone
Z:Rachel Marsh
K:D
FAAF EDDE | FAAF BFAF | GEBE GEBE | FAAF GFED | FAAF EDDE | FAAF BF A2 |
BAFB AFEF |  AFEF D4 :||
Addc d2 cd | efed cA A2 | DEFG A2 FA | BAFB AFED | Addc d2 cd | efed cA
A2 |
BAFB AFEF | AFEF D4 :||

